**harm	**harte	**timestamp	**phrase	**leadinstrument	**kern
*M4/4	*M4/4	*	*	*	*
*C:	*C:	*	*	*	*C:
1r;	N	0	.	r	1r;
=1	=1	=1	=1	=1	=1
*>A_intro	*>A_intro	*>A_intro	*>A_intro	*>A_intro	*>A_intro
2ivc	F:min/5	1.910	newline	synthesizer	2f 2a- 2C
2I	C:maj	3.714	.	synthesizer	2C 2e 2g
=2	=2	=2	=2	=2	=2
2ivc	F:min/5	5.518	.	synthesizer	2f 2a- 2C
2I	C:maj	7.322	.	synthesizer	2C 2e 2g
=3	=3	=3	=3	=3	=3
*>B2_verse	*>B2_verse	*>B2_verse	*>B2_verse	*>B2_verse	*>B2_verse
2ivc	F:min6/5	9.126	newline	voice	2f 2a- 2C
2I7	C:maj7	10.973	.	voice	2C 2e 2g 2b
=4	=4	=4	=4	=4	=4
2ivc	F:min6/5	12.821	.	voice	2f 2a- 2C
2I7	C:maj7	14.668	.	voice	2C 2e 2g 2b
=5	=5	=5	=5	=5	=5
2ivc	F:min6/5	16.516	newline	voice	2f 2a- 2C
2I7	C:maj9	18.376	.	voice	2C 2e 2g 2b
=6	=6	=6	=6	=6	=6
2ivc	F:min6/5	20.237	.	voice	2f 2a- 2C
4vii7	B:min7	22.097	.	voice	4B 4dd 4ff# 4aa
4III7	E:7(#11)	23.028	.	voice	4E 4g# 4b 4dd
=7	=7	=7	=7	=7	=7
4vi7	A:min7	23.958	newline	voice	4A 4cc 4ee 4gg
4II7	D:7	24.879	.	voice	4D 4f# 4a 4cc
2V7	G:7	25.8	.	voice	2G 2b 2dd 2ff
=8	=8	=8	=8	=8	=8
4vi7	A:min7	27.643	.	voice	4A 4cc 4ee 4gg
4II7	D:7	28.564	.	voice	4D 4f# 4a 4cc
2vii7e	B:min7/b2	29.485	.	voice	2B 2dd 2ff# 2aa
=9	=9	=9	=9	=9	=9
*>B_verse	*>B_verse	*>B_verse	*>B_verse	*>B_verse	*>B_verse
2ivc	F:min6/5	31.328	newline	voice	2f 2a- 2C
2I7	C:maj7	33.168	.	voice	2C 2e 2g 2b
=10	=10	=10	=10	=10	=10
2ivc	F:min6/5	35.008	.	voice	2f 2a- 2C
2I7	C:maj7	36.847	.	voice	2C 2e 2g 2b
=11	=11	=11	=11	=11	=11
2ivc	F:min6/5	38.687	newline	voice	2f 2a- 2C
2I7	C:maj9	40.54	.	voice	2C 2e 2g 2b
=12	=12	=12	=12	=12	=12
2ivc	F:min6/5	42.393	.	voice	2f 2a- 2C
4vii7	B:min7	44.246	.	voice	4B 4dd 4ff# 4aa
4III7	E:7(#11)	45.172	.	voice	4E 4g# 4b 4dd
=13	=13	=13	=13	=13	=13
4vi7	A:min7	46.099	newline	voice	4A 4cc 4ee 4gg
4II7	D:7	47.02	.	voice	4D 4f# 4a 4cc
4V	G:sus4(b7)	47.942	.	voice	4G 4b 4dd
4V7	G:7	48.864	.	voice	4G 4b 4dd 4ff
=14	=14	=14	=14	=14	=14
4vi7	A:min7	49.785	.	voice	4A 4cc 4ee 4gg
4II7	D:7	50.707	.	voice	4D 4f# 4a 4cc
4V	G:sus4(b7)	51.629	.	voice	4G 4b 4dd
4V7	G:7	52.55	.	voice	4G 4b 4dd 4ff
=15	=15	=15	=15	=15	=15
*M2/4	*M2/4	*M2/4	*M2/4	*M2/4	*M2/4
4vi7	A:min7	53.472	.	voice	4A 4cc 4ee 4gg
4II7	D:7	54.394	.	voice	4D 4f# 4a 4cc
=16	=16	=16	=16	=16	=16
*>C_prechorus	*>C_prechorus	*>C_prechorus	*>C_prechorus	*>C_prechorus	*>C_prechorus
*M4/4	*M4/4	*M4/4	*M4/4	*M4/4	*M4/4
4VM7	G:maj7	55.315	newline	voice	4G 4b 4dd 4ff
4I	C:sus4(b7)	56.24	.	voice	4C 4e 4g
4IV7	F:maj7	57.164	.	voice	4F 4a 4cc 4ee
4-VII	B-:sus4(b7)	58.089	.	voice	4B- 4dd 4ff
=17	=17	=17	=17	=17	=17
4ii7	D:min7	59.014	.	voice	4D 4f 4a 4cc
4iii7	E:min7	59.938	.	voice	4E 4g 4b 4dd
4IV7	F:maj7	60.863	.	voice	4F 4a 4cc 4ee
4V	G:sus4(b7)	61.787	.	voice	4G 4b 4dd
=18	=18	=18	=18	=18	=18
*>D_chorus	*>D_chorus	*>D_chorus	*>D_chorus	*>D_chorus	*>D_chorus
4I	C:sus4	62.712	newline	voice	4C 4e 4g
4I	C:maj	63.642	.	voice	4C 4e 4g
2iii7	E:min7	64.572	.	voice	2E 2g 2b 2dd
=19	=19	=19	=19	=19	=19
2IV7	F:maj7	66.433	.	voice	2F 2a 2cc 2ee
4IVe	F:maj/2	68.294	.	voice	4F 4a 4cc
4#vo	G#:dim	69.224	.	voice	4G# 4b 4dd
=20	=20	=20	=20	=20	=20
2vi7	A:min7	70.154	newline	voice	2A 2cc 2ee 2gg
2iii7	E:min7	72	.	voice	2E 2g 2b 2dd
=21	=21	=21	=21	=21	=21
2#iv7	F#:min7	73.847	.	voice	2F# 2a 2cc# 2ee
4VII7	B:7	75.693	.	voice	4B 4dd# 4ff# 4aa
4VII+7b	B:aug(b7)/3	76.616	.	voice	4b 4D# 4ff## 4aa
=22	=22	=22	=22	=22	=22
4iii7	E:min7	77.539	.	voice	4E 4g 4b 4dd
4vi7	A:min7	78.463	.	voice	4A 4cc 4ee 4gg
4ii7	D:min7	79.386	.	voice	4D 4f 4a 4cc
4V7	G:7	80.309	.	voice	4G 4b 4dd 4ff
=23	=23	=23	=23	=23	=23
*>A_interlude	*>A_interlude	*>A_interlude	*>A_interlude	*>A_interlude	*>A_interlude
2ivc	F:min/5	81.232	newline	synthesizer	2f 2a- 2C
2I7	C:maj7	83.081	.	synthesizer	2C 2e 2g 2b
=24	=24	=24	=24	=24	=24
2ivc	F:min6/5	84.93	.	synthesizer	2f 2a- 2C
2I7	C:maj7	86.779	.	synthesizer	2C 2e 2g 2b
=25	=25	=25	=25	=25	=25
*>B_verse	*>B_verse	*>B_verse	*>B_verse	*>B_verse	*>B_verse
2ivc	F:min6/5	88.628	newline	voice	2f 2a- 2C
2I7	C:maj7	90.473	.	voice	2C 2e 2g 2b
=26	=26	=26	=26	=26	=26
2ivc	F:min6/5	92.318	.	voice	2f 2a- 2C
2I7	C:maj7	94.163	.	voice	2C 2e 2g 2b
=27	=27	=27	=27	=27	=27
2ivc	F:min6/5	96.008	newline	voice	2f 2a- 2C
2I7	C:maj9	97.86	.	voice	2C 2e 2g 2b
=28	=28	=28	=28	=28	=28
2ivc	F:min6/5	99.712	.	voice	2f 2a- 2C
4vii7	B:min7	101.565	.	voice	4B 4dd 4ff# 4aa
4III7	E:7(#11)	102.491	.	voice	4E 4g# 4b 4dd
=29	=29	=29	=29	=29	=29
4vi7	A:min7	103.417	newline	voice	4A 4cc 4ee 4gg
4II7	D:7	104.337	.	voice	4D 4f# 4a 4cc
4V	G:sus4(b7)	105.257	.	voice	4G 4b 4dd
4V7	G:7	106.177	.	voice	4G 4b 4dd 4ff
=30	=30	=30	=30	=30	=30
4vi7	A:min7	107.097	.	voice	4A 4cc 4ee 4gg
4II7	D:7	108.017	.	voice	4D 4f# 4a 4cc
4V	G:sus4(b7)	108.937	.	voice	4G 4b 4dd
4V7	G:7	109.857	.	voice	4G 4b 4dd 4ff
=31	=31	=31	=31	=31	=31
*M2/4	*M2/4	*M2/4	*M2/4	*M2/4	*M2/4
4vi7	A:min7	110.777	.	voice	4A 4cc 4ee 4gg
4II7	D:7	111.697	.	voice	4D 4f# 4a 4cc
=32	=32	=32	=32	=32	=32
*>C_prechorus	*>C_prechorus	*>C_prechorus	*>C_prechorus	*>C_prechorus	*>C_prechorus
*M4/4	*M4/4	*M4/4	*M4/4	*M4/4	*M4/4
4VM7	G:maj7	112.617	newline	voice	4G 4b 4dd 4ff
4I	C:sus4(b7)	113.55	.	voice	4C 4e 4g
4IV7	F:maj7	114.483	.	voice	4F 4a 4cc 4ee
4-VII	B-:sus4(b7)	115.416	.	voice	4B- 4dd 4ff
=33	=33	=33	=33	=33	=33
4ii7	D:min7	116.349	.	voice	4D 4f 4a 4cc
4iii7	E:min7	117.282	.	voice	4E 4g 4b 4dd
4IV7	F:maj7	118.214	.	voice	4F 4a 4cc 4ee
4V	G:sus4(b7)	119.147	.	voice	4G 4b 4dd
=34	=34	=34	=34	=34	=34
*>D_chorus	*>D_chorus	*>D_chorus	*>D_chorus	*>D_chorus	*>D_chorus
4I	C:sus4	120.08	newline	voice	4C 4e 4g
4I	C:maj	121.001	.	voice	4C 4e 4g
2iii7	E:min7	121.921	.	voice	2E 2g 2b 2dd
=35	=35	=35	=35	=35	=35
2IV7	F:maj7	123.763	.	voice	2F 2a 2cc 2ee
4IVe	F:maj/2	125.604	.	voice	4F 4a 4cc
4#vo	G#:dim	126.525	.	voice	4G# 4b 4dd
=36	=36	=36	=36	=36	=36
2vi7	A:min7	127.445	newline	voice	2A 2cc 2ee 2gg
2iii7	E:min7	129.297	.	voice	2E 2g 2b 2dd
=37	=37	=37	=37	=37	=37
2#iv7	F#:min7	131.148	.	voice	2F# 2a 2cc# 2ee
4VII7	B:7	132.999	.	voice	4B 4dd# 4ff# 4aa
4VII+7b	B:aug(b7)/3	133.925	.	voice	4b 4D# 4ff## 4aa
=38	=38	=38	=38	=38	=38
4iii7	E:min7	134.85	.	voice	4E 4g 4b 4dd
4vi7	A:min7	135.776	.	voice	4A 4cc 4ee 4gg
4ii7	D:min7	136.701	.	voice	4D 4f 4a 4cc
4V7	G:7	137.627	.	voice	4G 4b 4dd 4ff
=39	=39	=39	=39	=39	=39
*>D_chorus	*>D_chorus	*>D_chorus	*>D_chorus	*>D_chorus	*>D_chorus
4I	C:sus4	138.552	newline	voice	4C 4e 4g
4I	C:maj	139.47	.	voice	4C 4e 4g
2iii7	E:min7	140.387	.	voice	2E 2g 2b 2dd
=40	=40	=40	=40	=40	=40
2IV7	F:maj7	142.221	.	voice	2F 2a 2cc 2ee
4IVe	F:maj/2	144.055	.	voice	4F 4a 4cc
4#vo	G#:dim	144.972	.	voice	4G# 4b 4dd
=41	=41	=41	=41	=41	=41
2vi7	A:min7	145.889	newline	voice	2A 2cc 2ee 2gg
2iii7	E:min7	147.74	.	voice	2E 2g 2b 2dd
=42	=42	=42	=42	=42	=42
2#iv7	F#:min7	149.591	.	voice	2F# 2a 2cc# 2ee
4VII7	B:7	151.442	.	voice	4B 4dd# 4ff# 4aa
4VII+7b	B:aug(b7)/3	152.367	.	voice	4b 4D# 4ff## 4aa
=43	=43	=43	=43	=43	=43
4iii7	E:min7	153.293	.	voice	4E 4g 4b 4dd
4vi7	A:min7	154.218	.	voice	4A 4cc 4ee 4gg
4ii7	D:min7	155.144	.	voice	4D 4f 4a 4cc
4V7	G:7	156.069	.	voice	4G 4b 4dd 4ff
=44	=44	=44	=44	=44	=44
*>B_verse	*>B_verse	*>B_verse	*>B_verse	*>B_verse	*>B_verse
2ivc	F:min/5	156.994	newline	horn	2f 2a- 2C
2I7	C:maj7	158.85	.	horn	2C 2e 2g 2b
=45	=45	=45	=45	=45	=45
2ivc	F:min6/5	160.705	.	horn	2f 2a- 2C
2I7	C:maj7	162.56	.	horn	2C 2e 2g 2b
=46	=46	=46	=46	=46	=46
2ivc	F:min6/5	164.415	newline	horn	2f 2a- 2C
4ivc	F:min/5	166.256	.	horn	4f 4a- 4C
4I	C:maj	167.177	.	horn	4C 4e 4g
=47	=47	=47	=47	=47	=47
2ivc	F:min6/5	168.097	.	horn	2f 2a- 2C
4ivc	F:min/5	169.939	.	horn	4f 4a- 4C
4I	C:maj	170.859	.	horn	4C 4e 4g
=48	=48	=48	=48	=48	=48
2ivc	F:min6/5	171.78	newline	horn	2f 2a- 2C
4ivc	F:min/5	173.647	.	horn	4f 4a- 4C
4I	C:maj	174.581	.	horn	4C 4e 4g
=49	=49	=49	=49	=49	=49
4ivc	F:min/5	175.515	.	horn	4f 4a- 4C
4ivc	F:min6(9)/5	176.448	.	horn	4f 4a- 4C
4vii7	B:min7	177.382	.	horn	4B 4dd 4ff# 4aa
4iii7	E:min7	178.316	.	horn	4E 4g 4b 4dd
=50	=50	=50	=50	=50	=50
4vi7	A:min7	179.249	newline	voice	4A 4cc 4ee 4gg
4II7	D:7	180.169	.	voice	4D 4f# 4a 4cc
4V	G:sus4(b7)	181.089	.	voice	4G 4b 4dd
4V7	G:7	182.009	.	voice	4G 4b 4dd 4ff
=51	=51	=51	=51	=51	=51
4vi7	A:min7	182.929	.	voice	4A 4cc 4ee 4gg
4II7	D:7	183.849	.	voice	4D 4f# 4a 4cc
4V	G:sus4(b7)	184.769	.	voice	4G 4b 4dd
4V7	G:7	185.689	.	voice	4G 4b 4dd 4ff
=52	=52	=52	=52	=52	=52
*M2/4	*M2/4	*M2/4	*M2/4	*M2/4	*M2/4
4vi7	A:min7	186.609	.	voice	4A 4cc 4ee 4gg
4II7	D:7	187.529	.	voice	4D 4f# 4a 4cc
=53	=53	=53	=53	=53	=53
*>C_prechorus	*>C_prechorus	*>C_prechorus	*>C_prechorus	*>C_prechorus	*>C_prechorus
*M4/4	*M4/4	*M4/4	*M4/4	*M4/4	*M4/4
4VM7	G:maj7	188.449	newline	voice	4G 4b 4dd 4ff
4I	C:sus4(b7)	189.377	.	voice	4C 4e 4g
4IV7	F:maj7	190.305	.	voice	4F 4a 4cc 4ee
4-VII	B-:sus4(b7)	191.233	.	voice	4B- 4dd 4ff
=54	=54	=54	=54	=54	=54
4ii7	D:min7	192.161	.	voice	4D 4f 4a 4cc
4iii7	E:min7	193.089	.	voice	4E 4g 4b 4dd
4IV7	F:maj7	194.016	.	voice	4F 4a 4cc 4ee
4V	G:sus4(b7)	194.944	.	voice	4G 4b 4dd
=55	=55	=55	=55	=55	=55
*>D_chorus	*>D_chorus	*>D_chorus	*>D_chorus	*>D_chorus	*>D_chorus
4I	C:sus4	195.872	newline	voice	4C 4e 4g
4I	C:maj	196.794	.	voice	4C 4e 4g
2iii7	E:min7	197.716	.	voice	2E 2g 2b 2dd
=56	=56	=56	=56	=56	=56
2IV7	F:maj7	199.559	.	voice	2F 2a 2cc 2ee
4IVe	F:maj/2	201.403	.	voice	4F 4a 4cc
4#vo	G#:dim	202.325	.	voice	4G# 4b 4dd
=57	=57	=57	=57	=57	=57
2vi7	A:min7	203.247	newline	voice	2A 2cc 2ee 2gg
2iii7	E:min7	205.085	.	voice	2E 2g 2b 2dd
=58	=58	=58	=58	=58	=58
2#iv7	F#:min7	206.923	.	voice	2F# 2a 2cc# 2ee
4VII7	B:7	208.761	.	voice	4B 4dd# 4ff# 4aa
4VII+7b	B:aug(b7)/3	209.68	.	voice	4b 4D# 4ff## 4aa
=59	=59	=59	=59	=59	=59
4iii7	E:min7	210.599	.	voice	4E 4g 4b 4dd
4vi7	A:min7	211.518	.	voice	4A 4cc 4ee 4gg
4ii7	D:min7	212.437	.	voice	4D 4f 4a 4cc
4V7	G:7	213.356	.	voice	4G 4b 4dd 4ff
=60	=60	=60	=60	=60	=60
*>D_chorus	*>D_chorus	*>D_chorus	*>D_chorus	*>D_chorus	*>D_chorus
4I	C:sus4	214.275	newline	voice	4C 4e 4g
4I	C:maj	215.202	.	voice	4C 4e 4g
2iii7	E:min7	216.129	.	voice	2E 2g 2b 2dd
=61	=61	=61	=61	=61	=61
2IV7	F:maj7	217.983	.	voice	2F 2a 2cc 2ee
4IVe	F:maj/2	219.837	.	voice	4F 4a 4cc
4#vo	G#:dim	220.764	.	voice	4G# 4b 4dd
=62	=62	=62	=62	=62	=62
*>_fadeout	*>_fadeout	*>_fadeout	*>_fadeout	*>_fadeout	*>_fadeout
2vi7	A:min7	221.691	newline	voice	2A 2cc 2ee 2gg
2iii7	E:min7	223.536	.	voice	2E 2g 2b 2dd
=63	=63	=63	=63	=63	=63
2#iv7	F#:min7	225.38	.	voice	2F# 2a 2cc# 2ee
4VII7	B:7	227.224	.	voice	4B 4dd# 4ff# 4aa
4VII+7b	B:aug(b7)/3	228.147	.	voice	4b 4D# 4ff## 4aa
=64	=64	=64	=64	=64	=64
4iii7	E:min7	229.069	.	voice	4E 4g 4b 4dd
4vi7	A:min7	229.991	.	voice	4A 4cc 4ee 4gg
4ii7	D:min7	230.913	.	voice	4D 4f 4a 4cc
4V7	G:7	231.836	.	voice	4G 4b 4dd 4ff
=65	=65	=65	=65	=65	=65
*>D_chorus	*>D_chorus	*>D_chorus	*>D_chorus	*>D_chorus	*>D_chorus
4I	C:sus4	232.758	newline	voice	4C 4e 4g
4I	C:maj	233.689	.	voice	4C 4e 4g
2iii7	E:min7	234.62	.	voice	2E 2g 2b 2dd
=66	=66	=66	=66	=66	=66
2IV7	F:maj7	236.482	.	voice	2F 2a 2cc 2ee
4IVe	F:maj/2	238.344	.	voice	4F 4a 4cc
4#vo	G#:dim	239.275	.	voice	4G# 4b 4dd
=67	=67	=67	=67	=67	=67
2vi7	A:min7	240.206	newline	voice	2A 2cc 2ee 2gg
2iii7	E:min7	241.137	.	voice	2E 2g 2b 2dd
1r;	N	242.068	.	r	1r;
1r;	N	247.798	.	r	1r;
*-	*-	*-	*-	*-	*-
!!!OTL: Time Will Reveal
!!!COC: Debarge
!!!BillboardChartDate: 1984/02/11
!!!BillboardPeak: 18
!!!BillboardWeeksOnChart: 18
!!!SampleTargetRank: 45
!!!SampleActualRank: 44
!!!SampleID#: 1013
!!!RDF**harmony: **recip + pitch class of root + harmonic quality
!!!RDF**harte: Chris Harte's syntax, used by MIREX
!!!RDF**phrase: newline = linebreak in original McGill transcription
!!!RDF**timestamp: McGill audio timestamp in seconds
!!!RDF**leadinstrument: original McGill primary instrumentation annotation
!!!RDT: 2017/01/12/
!!!ENC: Nathaniel Condit-Schultz
!!!EST: Awating manual error checking and editing.
